public/build/img/icIdeaD.svg

<svg xmlns="http://www.w3.org/2000/svg" xmlns:xlink="http://www.w3.org/1999/xlink" width="500" zoomAndPan="magnify" viewBox="0 0 375 374.999991" height="500" preserveAspectRatio="xMidYMid meet" version="1.0"><defs><clipPath id="66b996307c"><path d="M 185 108.929688 L 191 108.929688 L 191 124 L 185 124 Z M 185 108.929688 " clip-rule="nonzero"/></clipPath><clipPath id="848a39b24f"><path d="M 121.203125 172 L 136 172 L 136 178 L 121.203125 178 Z M 121.203125 172 " clip-rule="nonzero"/></clipPath><clipPath id="dade0b8c61"><path d="M 239 172 L 253.953125 172 L 253.953125 178 L 239 178 Z M 239 172 " clip-rule="nonzero"/></clipPath><clipPath id="9235bcdf63"><path d="M 180 261 L 195 261 L 195 266.429688 L 180 266.429688 Z M 180 261 " clip-rule="nonzero"/></clipPath></defs><path fill="#e08709" d="M 187.578125 128.617188 C 161.765625 128.617188 140.871094 149.289062 140.871094 174.757812 C 140.871094 185.832031 144.929688 196.539062 152.304688 204.90625 C 153.777344 206.628906 155.5 208.226562 156.972656 209.949219 C 158.941406 212.410156 162.75 217.703125 165.824219 224.839844 C 167.667969 229.023438 168.898438 233.453125 169.511719 237.757812 C 170.125 241.449219 173.199219 244.15625 176.886719 244.15625 L 198.273438 244.15625 C 201.960938 244.15625 205.15625 241.449219 205.648438 237.757812 C 206.261719 233.574219 207.492188 229.269531 209.335938 225.085938 C 211.917969 219.054688 214.496094 214.75 216.339844 212.289062 C 217.816406 210.195312 219.660156 208.472656 221.382812 206.628906 C 229.738281 198.015625 234.410156 186.695312 234.410156 174.757812 C 234.289062 149.289062 213.390625 128.617188 187.578125 128.617188 Z M 217.816406 203.304688 C 215.851562 205.273438 213.882812 207.242188 212.285156 209.582031 C 210.441406 212.289062 207.613281 216.964844 204.910156 223.363281 C 202.945312 227.914062 201.59375 232.589844 200.976562 237.265625 C 200.730469 238.496094 199.625 239.480469 198.394531 239.480469 L 194.953125 239.480469 L 194.953125 232.097656 C 194.953125 230.746094 193.847656 229.636719 192.496094 229.636719 C 191.144531 229.636719 190.039062 230.746094 190.039062 232.097656 L 190.039062 239.480469 L 185.121094 239.480469 L 185.121094 192.230469 C 185.121094 190.632812 185.121094 189.894531 185.613281 189.402344 C 186.84375 188.171875 188.5625 187.433594 190.777344 187.0625 C 190.777344 187.0625 190.898438 187.0625 190.898438 187.0625 L 192.003906 186.816406 C 194.21875 188.292969 196.796875 188.292969 198.640625 188.292969 C 200.855469 188.292969 203.066406 187.554688 204.910156 186.324219 C 207.367188 186.941406 209.703125 186.941406 212.164062 186.203125 C 218.0625 184.601562 222.609375 179.433594 223.347656 173.40625 C 224.085938 167.253906 221.257812 161.222656 216.097656 158.148438 C 215.113281 152.980469 210.6875 149.164062 205.523438 149.164062 C 205.15625 149.164062 204.789062 149.164062 204.542969 149.164062 C 202.699219 146.089844 199.503906 143.996094 195.9375 143.75 C 195.816406 143.75 195.570312 143.75 195.445312 143.75 C 195.445312 143.75 195.324219 143.75 195.324219 143.75 C 195.324219 143.75 195.199219 143.75 195.199219 143.75 C 194.953125 143.75 194.585938 143.75 194.339844 143.75 C 192.742188 143.875 191.265625 144.367188 189.914062 145.105469 C 188.070312 143.75 185.859375 143.011719 183.523438 143.011719 C 180.328125 143.011719 177.5 144.367188 175.410156 146.703125 C 174.671875 146.582031 173.9375 146.457031 173.199219 146.457031 C 168.527344 146.457031 164.472656 149.535156 162.996094 153.839844 C 158.449219 155.195312 155.253906 159.5 155.253906 164.421875 C 155.253906 165.40625 155.375 166.515625 155.621094 167.5 C 153.53125 169.589844 152.179688 172.421875 152.179688 175.496094 C 152.179688 178.328125 153.285156 181.035156 155.128906 183.125 C 155.128906 183.25 155.128906 183.25 155.128906 183.371094 C 157.835938 193.585938 165.699219 194.9375 166.070312 194.9375 C 167.421875 195.183594 168.652344 194.199219 168.898438 192.847656 C 169.140625 191.492188 168.160156 190.261719 166.929688 190.015625 C 166.683594 190.015625 162.011719 189.03125 160.046875 182.386719 C 160.046875 182.386719 160.046875 182.265625 160.046875 182.265625 C 160.046875 181.527344 159.800781 180.664062 159.1875 180.171875 C 157.835938 179.066406 157.097656 177.34375 157.097656 175.496094 C 157.097656 173.652344 157.835938 171.929688 159.1875 170.820312 C 159.1875 170.820312 159.308594 170.699219 159.308594 170.699219 C 160.292969 169.835938 161.644531 169.34375 162.875 169.46875 C 164.226562 169.589844 165.453125 170.207031 166.316406 171.191406 C 166.808594 171.804688 167.542969 172.050781 168.160156 172.050781 C 168.773438 172.050781 169.265625 171.804688 169.757812 171.4375 C 170.742188 170.574219 170.863281 168.976562 170.003906 167.992188 C 168.28125 165.898438 165.824219 164.667969 163.121094 164.546875 C 162.011719 164.421875 160.90625 164.546875 159.800781 164.914062 C 159.800781 164.792969 159.800781 164.667969 159.800781 164.546875 C 159.800781 161.46875 162.011719 158.886719 164.964844 158.515625 C 166.070312 158.394531 166.929688 157.53125 167.054688 156.546875 C 167.542969 153.839844 169.757812 151.75 172.339844 151.625 C 172.339844 151.625 172.460938 151.625 172.460938 151.625 C 174.550781 151.625 176.515625 152.980469 177.253906 155.070312 C 177.5 155.5625 177.5 156.179688 177.5 156.792969 C 177.5 158.148438 178.605469 159.253906 179.957031 159.253906 C 181.3125 159.253906 182.417969 158.148438 182.417969 156.792969 C 182.417969 155.6875 182.171875 154.578125 181.800781 153.472656 C 181.3125 151.996094 180.449219 150.640625 179.34375 149.535156 C 180.328125 148.671875 181.679688 148.179688 183.03125 148.179688 C 184.136719 148.179688 185.246094 148.550781 186.226562 149.164062 C 185.488281 150.640625 185 152.242188 185 153.964844 C 185 155.316406 186.105469 156.425781 187.457031 156.425781 C 188.808594 156.425781 189.914062 155.316406 189.914062 153.964844 C 189.914062 151.132812 192.128906 148.796875 194.832031 148.796875 C 197.289062 148.796875 199.503906 150.394531 200.363281 152.855469 C 200.855469 154.085938 202.207031 154.824219 203.4375 154.457031 C 204.050781 154.332031 204.542969 154.210938 205.15625 154.210938 C 207.859375 154.210938 210.195312 156.179688 210.8125 158.761719 C 210.8125 158.761719 210.8125 158.886719 210.8125 158.886719 C 210.320312 160.976562 208.597656 162.699219 206.507812 162.945312 C 205.15625 163.070312 204.171875 164.300781 204.417969 165.652344 C 204.542969 166.882812 205.648438 167.746094 206.878906 167.746094 C 207 167.746094 207.125 167.746094 207.246094 167.746094 C 210.195312 167.375 212.777344 165.652344 214.375 163.070312 C 217.203125 165.285156 218.675781 168.976562 218.183594 172.667969 C 217.695312 176.851562 214.621094 180.296875 210.6875 181.402344 C 208.722656 181.894531 206.753906 181.894531 204.910156 181.15625 C 204.050781 180.910156 203.066406 181.035156 202.453125 181.648438 C 201.347656 182.632812 199.992188 183.25 198.519531 183.25 C 198.394531 183.25 198.394531 183.25 198.273438 183.25 C 200.363281 180.789062 201.222656 177.464844 200.363281 174.144531 C 199.992188 172.789062 198.640625 172.050781 197.414062 172.421875 C 196.0625 172.789062 195.324219 174.144531 195.691406 175.375 C 196.429688 178.203125 194.832031 181.035156 192.128906 181.773438 C 192.128906 181.773438 192.128906 181.773438 192.003906 181.773438 L 190.039062 182.265625 C 185.859375 182.757812 183.402344 184.601562 182.046875 186.078125 C 180.203125 188.046875 180.203125 190.386719 180.203125 192.230469 L 180.203125 239.359375 L 176.886719 239.359375 C 175.65625 239.359375 174.550781 238.375 174.304688 237.144531 C 173.566406 232.46875 172.214844 227.667969 170.25 222.992188 C 167.175781 215.734375 163.367188 210.320312 160.785156 206.996094 C 159.308594 205.152344 157.589844 203.550781 155.992188 201.707031 C 149.351562 194.199219 145.789062 184.601562 145.789062 174.757812 C 145.789062 151.996094 164.59375 133.539062 187.578125 133.539062 C 210.566406 133.539062 229.371094 151.996094 229.371094 174.757812 C 229.371094 185.464844 225.191406 195.554688 217.816406 203.304688 Z M 217.816406 203.304688 " fill-opacity="1" fill-rule="nonzero"/><g clip-path="url(#66b996307c)"><path fill="#e08709" d="M 187.578125 123.695312 C 188.933594 123.695312 190.039062 122.585938 190.039062 121.234375 L 190.039062 111.390625 C 190.039062 110.035156 188.933594 108.929688 187.578125 108.929688 C 186.226562 108.929688 185.121094 110.035156 185.121094 111.390625 L 185.121094 121.234375 C 185.121094 122.585938 186.226562 123.695312 187.578125 123.695312 Z M 187.578125 123.695312 " fill-opacity="1" fill-rule="nonzero"/></g><path fill="#e08709" d="M 164.59375 126.277344 C 164.964844 127.261719 165.945312 127.753906 166.808594 127.753906 C 167.175781 127.753906 167.421875 127.753906 167.789062 127.507812 C 169.019531 127.015625 169.632812 125.539062 169.140625 124.308594 L 165.332031 115.203125 C 164.839844 113.972656 163.367188 113.359375 162.136719 113.851562 C 160.90625 114.34375 160.292969 115.820312 160.785156 117.050781 Z M 164.59375 126.277344 " fill-opacity="1" fill-rule="nonzero"/><path fill="#e08709" d="M 146.894531 138.214844 C 147.507812 138.828125 148.371094 139.445312 149.230469 139.566406 C 149.476562 139.566406 149.84375 139.566406 150.089844 139.445312 C 151.195312 138.953125 151.933594 137.722656 151.566406 136.613281 C 151.320312 135.875 150.828125 135.261719 150.214844 134.769531 C 148.371094 132.921875 146.527344 131.078125 144.558594 129.230469 C 144.066406 128.738281 143.699219 128.371094 143.085938 128.125 C 142.222656 127.753906 141.117188 128 140.503906 128.617188 C 139.890625 129.230469 139.644531 130.339844 140.011719 131.199219 C 140.257812 131.816406 140.75 132.308594 141.117188 132.675781 C 143.207031 134.398438 145.050781 136.246094 146.894531 138.214844 Z M 146.894531 138.214844 " fill-opacity="1" fill-rule="nonzero"/><path fill="#e08709" d="M 138.535156 152.363281 L 129.441406 148.550781 C 128.210938 148.058594 126.738281 148.671875 126.246094 149.902344 C 125.753906 151.132812 126.367188 152.609375 127.597656 153.101562 C 127.597656 153.101562 136.691406 156.917969 136.691406 156.917969 C 137.921875 157.410156 139.398438 156.792969 139.890625 155.5625 C 140.378906 154.332031 139.765625 152.855469 138.535156 152.363281 Z M 138.535156 152.363281 " fill-opacity="1" fill-rule="nonzero"/><g clip-path="url(#848a39b24f)"><path fill="#e08709" d="M 133.496094 172.914062 L 123.664062 172.914062 C 122.3125 172.914062 121.207031 174.019531 121.207031 175.375 C 121.207031 176.726562 122.3125 177.835938 123.664062 177.835938 L 133.496094 177.835938 C 134.847656 177.835938 135.957031 176.726562 135.957031 175.375 C 135.957031 174.019531 134.847656 172.914062 133.496094 172.914062 Z M 133.496094 172.914062 " fill-opacity="1" fill-rule="nonzero"/></g><g clip-path="url(#dade0b8c61)"><path fill="#e08709" d="M 251.496094 172.914062 L 241.664062 172.914062 C 240.308594 172.914062 239.203125 174.019531 239.203125 175.375 C 239.203125 176.726562 240.308594 177.835938 241.664062 177.835938 L 251.496094 177.835938 C 252.847656 177.835938 253.953125 176.726562 253.953125 175.375 C 253.953125 174.019531 252.847656 172.914062 251.496094 172.914062 Z M 251.496094 172.914062 " fill-opacity="1" fill-rule="nonzero"/></g><path fill="#e08709" d="M 248.914062 149.902344 C 248.421875 148.671875 246.949219 148.058594 245.71875 148.550781 L 236.621094 152.363281 C 235.394531 152.855469 234.777344 154.332031 235.269531 155.5625 C 235.640625 156.546875 236.621094 157.039062 237.484375 157.039062 C 237.851562 157.039062 238.097656 157.039062 238.464844 156.792969 L 247.5625 152.980469 C 248.792969 152.609375 249.40625 151.257812 248.914062 149.902344 Z M 248.914062 149.902344 " fill-opacity="1" fill-rule="nonzero"/><path fill="#e08709" d="M 234.53125 128.371094 C 233.550781 127.386719 232.074219 127.386719 231.089844 128.371094 L 224.085938 135.382812 C 223.101562 136.367188 223.101562 137.84375 224.085938 138.828125 C 224.578125 139.320312 225.191406 139.566406 225.804688 139.566406 C 226.421875 139.566406 227.035156 139.320312 227.527344 138.828125 L 234.53125 131.816406 C 235.515625 130.953125 235.515625 129.355469 234.53125 128.371094 Z M 234.53125 128.371094 " fill-opacity="1" fill-rule="nonzero"/><path fill="#e08709" d="M 207.367188 127.632812 C 207.738281 127.753906 207.984375 127.878906 208.351562 127.878906 C 209.335938 127.878906 210.195312 127.261719 210.566406 126.402344 L 214.375 117.296875 C 214.867188 116.066406 214.253906 114.589844 213.023438 114.097656 C 211.792969 113.605469 210.320312 114.21875 209.828125 115.449219 L 206.015625 124.433594 C 205.523438 125.664062 206.140625 127.140625 207.367188 127.632812 Z M 207.367188 127.632812 " fill-opacity="1" fill-rule="nonzero"/><path fill="#e08709" d="M 199.871094 246.742188 L 175.289062 246.742188 C 173.9375 246.742188 172.828125 247.847656 172.828125 249.203125 C 172.828125 250.554688 173.9375 251.664062 175.289062 251.664062 L 199.871094 251.664062 C 201.222656 251.664062 202.328125 250.554688 202.328125 249.203125 C 202.328125 247.847656 201.222656 246.742188 199.871094 246.742188 Z M 199.871094 246.742188 " fill-opacity="1" fill-rule="nonzero"/><path fill="#e08709" d="M 197.414062 254.125 L 177.746094 254.125 C 176.394531 254.125 175.289062 255.230469 175.289062 256.585938 C 175.289062 257.9375 176.394531 259.046875 177.746094 259.046875 L 197.414062 259.046875 C 198.765625 259.046875 199.871094 257.9375 199.871094 256.585938 C 199.871094 255.230469 198.765625 254.125 197.414062 254.125 Z M 197.414062 254.125 " fill-opacity="1" fill-rule="nonzero"/><g clip-path="url(#9235bcdf63)"><path fill="#e08709" d="M 192.496094 261.507812 L 182.664062 261.507812 C 181.3125 261.507812 180.203125 262.613281 180.203125 263.96875 C 180.203125 265.320312 181.3125 266.429688 182.664062 266.429688 L 192.496094 266.429688 C 193.847656 266.429688 194.953125 265.320312 194.953125 263.96875 C 194.953125 262.613281 193.847656 261.507812 192.496094 261.507812 Z M 192.496094 261.507812 " fill-opacity="1" fill-rule="nonzero"/></g></svg>

<svg xmlns="http://www.w3.org/2000/svg" width="500" viewBox="0 0 375 375" height="500" version="1.0"><defs><clipPath id="a"><path d="M185 108.93h6V124h-6zm0 0"/></clipPath><clipPath id="b"><path d="M121.203 172H136v6h-14.797zm0 0"/></clipPath><clipPath id="c"><path d="M239 172h14.953v6H239zm0 0"/></clipPath><clipPath id="d"><path d="M180 261h15v5.43h-15zm0 0"/></clipPath></defs><path fill="#e08709" d="M187.578 128.617c-25.812 0-46.707 20.672-46.707 46.14 0 11.075 4.059 21.782 11.434 30.15 1.472 1.722 3.195 3.32 4.668 5.042 1.968 2.461 5.777 7.754 8.851 14.89a49.674 49.674 0 013.688 12.919c.613 3.691 3.687 6.398 7.375 6.398h21.386c3.688 0 6.883-2.707 7.375-6.398.614-4.184 1.844-8.488 3.688-12.672 2.582-6.031 5.16-10.336 7.004-12.797 1.476-2.094 3.32-3.816 5.043-5.66 8.355-8.613 13.027-19.934 13.027-31.871-.12-25.469-21.02-46.14-46.832-46.14zm30.238 74.688c-1.964 1.968-3.933 3.937-5.53 6.277-1.845 2.707-4.673 7.383-7.376 13.781-1.965 4.551-3.316 9.227-3.933 13.903-.247 1.23-1.352 2.214-2.582 2.214h-3.442v-7.382a2.467 2.467 0 00-2.457-2.461 2.467 2.467 0 00-2.457 2.46v7.383h-4.918v-47.25c0-1.597 0-2.335.492-2.828 1.23-1.23 2.95-1.968 5.164-2.34h.121l1.106-.246c2.215 1.477 4.793 1.477 6.637 1.477 2.214 0 4.425-.738 6.27-1.969 2.456.617 4.792.617 7.253-.12 5.899-1.602 10.445-6.77 11.184-12.798.738-6.152-2.09-12.183-7.25-15.258-.985-5.168-5.41-8.984-10.575-8.984h-.98c-1.844-3.074-5.04-5.168-8.606-5.414h-1.598c-1.597.125-3.073.617-4.425 1.355a10.729 10.729 0 00-6.39-2.093c-3.196 0-6.024 1.355-8.114 3.691-.738-.121-1.472-.246-2.21-.246-4.673 0-8.727 3.078-10.204 7.383-4.547 1.355-7.742 5.66-7.742 10.582 0 .984.121 2.094.367 3.078-2.09 2.09-3.441 4.922-3.441 7.996 0 2.832 1.105 5.54 2.949 7.629v.246c2.707 10.215 10.57 11.566 10.941 11.566 1.352.247 2.582-.738 2.828-2.09.243-1.355-.738-2.585-1.968-2.831-.246 0-4.918-.985-6.883-7.63v-.12c0-.739-.246-1.602-.86-2.094-1.351-1.106-2.09-2.828-2.09-4.676 0-1.844.739-3.566 2.09-4.676l.122-.12c.984-.864 2.336-1.356 3.566-1.231a5.17 5.17 0 013.441 1.722c.493.614 1.227.86 1.844.86.613 0 1.106-.246 1.598-.613.984-.864 1.105-2.461.246-3.446a9.378 9.378 0 00-6.883-3.445 7.688 7.688 0 00-3.32.367v-.367c0-3.078 2.21-5.66 5.164-6.031 1.105-.121 1.965-.985 2.09-1.97.488-2.706 2.703-4.796 5.285-4.921h.12c2.09 0 4.056 1.355 4.794 3.445.246.493.246 1.11.246 1.723a2.465 2.465 0 002.457 2.46 2.466 2.466 0 002.461-2.46c0-1.106-.246-2.215-.617-3.32-.488-1.477-1.352-2.832-2.457-3.938.984-.863 2.336-1.355 3.687-1.355 1.106 0 2.215.37 3.196.984-.739 1.477-1.227 3.078-1.227 4.8a2.467 2.467 0 002.457 2.462 2.467 2.467 0 002.457-2.461c0-2.832 2.215-5.168 4.918-5.168 2.457 0 4.672 1.598 5.531 4.058.492 1.23 1.844 1.97 3.075 1.602.613-.125 1.105-.246 1.718-.246 2.703 0 5.04 1.969 5.656 4.55v.126c-.492 2.09-2.214 3.812-4.304 4.058-1.352.125-2.336 1.356-2.09 2.707.125 1.23 1.23 2.094 2.46 2.094h.368c2.95-.371 5.531-2.094 7.129-4.676 2.828 2.215 4.3 5.907 3.809 9.598-.489 4.184-3.563 7.629-7.496 8.734-1.965.493-3.934.493-5.778-.246-.86-.246-1.844-.12-2.457.492-1.105.985-2.46 1.602-3.933 1.602h-.247c2.09-2.46 2.95-5.785 2.09-9.105-.37-1.356-1.722-2.094-2.949-1.723-1.351.367-2.09 1.723-1.723 2.953.739 2.828-.859 5.66-3.562 6.398h-.125l-1.965.493c-4.18.492-6.637 2.336-7.992 3.812-1.844 1.969-1.844 4.309-1.844 6.152v47.13h-3.316c-1.23 0-2.336-.985-2.582-2.215-.739-4.676-2.09-9.477-4.055-14.153-3.074-7.258-6.883-12.672-9.465-15.996-1.476-1.844-3.195-3.445-4.793-5.289a40.65 40.65 0 01-10.203-26.95c0-22.76 18.805-41.218 41.79-41.218 22.987 0 41.792 18.457 41.792 41.219 0 10.707-4.18 20.797-11.555 28.547zm0 0"/><g clip-path="url(#a)"><path fill="#e08709" d="M187.578 123.695a2.468 2.468 0 002.461-2.46v-9.844a2.466 2.466 0 00-2.46-2.461 2.465 2.465 0 00-2.458 2.46v9.844a2.467 2.467 0 002.457 2.461zm0 0"/></g><path fill="#e08709" d="M164.594 126.277c.37.985 1.351 1.477 2.215 1.477.367 0 .613 0 .98-.246 1.23-.492 1.844-1.969 1.352-3.2l-3.809-9.105c-.492-1.23-1.965-1.844-3.195-1.351-1.23.492-1.844 1.968-1.352 3.199zm-17.699 11.938c.613.613 1.476 1.23 2.335 1.351.247 0 .614 0 .86-.12 1.105-.493 1.844-1.723 1.476-2.833-.246-.738-.738-1.351-1.351-1.843-1.844-1.848-3.688-3.692-5.656-5.54-.493-.492-.86-.859-1.473-1.105-.863-.371-1.969-.125-2.582.492-.613.613-.86 1.723-.492 2.582.246.617.738 1.11 1.105 1.477 2.09 1.722 3.934 3.57 5.778 5.539zm-8.36 14.148l-9.094-3.812c-1.23-.492-2.703.12-3.195 1.351-.492 1.23.121 2.707 1.352 3.2l9.093 3.816c1.23.492 2.707-.125 3.2-1.356.488-1.23-.125-2.707-1.356-3.199zm0 0"/><g clip-path="url(#b)"><path fill="#e08709" d="M133.496 172.914h-9.832a2.465 2.465 0 00-2.457 2.461 2.467 2.467 0 002.457 2.46h9.832a2.47 2.47 0 002.461-2.46c0-1.355-1.11-2.46-2.46-2.46zm0 0"/></g><g clip-path="url(#c)"><path fill="#e08709" d="M251.496 172.914h-9.832a2.466 2.466 0 00-2.46 2.461 2.468 2.468 0 002.46 2.46h9.832a2.467 2.467 0 002.457-2.46 2.465 2.465 0 00-2.457-2.46zm0 0"/></g><path fill="#e08709" d="M248.914 149.902c-.492-1.23-1.965-1.843-3.195-1.351l-9.098 3.812c-1.226.492-1.844 1.969-1.351 3.2.37.984 1.351 1.476 2.214 1.476.368 0 .614 0 .98-.246l9.099-3.813c1.23-.37 1.843-1.722 1.351-3.078zm-14.383-21.531c-.98-.984-2.457-.984-3.441 0l-7.004 7.012c-.984.984-.984 2.46 0 3.445.492.492 1.105.738 1.719.738.617 0 1.23-.246 1.722-.738l7.004-7.012c.985-.863.985-2.46 0-3.445zm-27.164-.738c.371.12.617.246.985.246.984 0 1.843-.617 2.214-1.477l3.809-9.105c.492-1.23-.121-2.707-1.352-3.2-1.23-.492-2.703.122-3.195 1.352l-3.812 8.985c-.493 1.23.125 2.707 1.351 3.199zm-7.496 119.109H175.29a2.468 2.468 0 00-2.46 2.461 2.47 2.47 0 002.46 2.461h24.582a2.467 2.467 0 002.457-2.46 2.465 2.465 0 00-2.457-2.462zm-2.457 7.383h-19.668a2.465 2.465 0 00-2.457 2.46 2.467 2.467 0 002.457 2.462h19.668a2.467 2.467 0 002.457-2.461 2.465 2.465 0 00-2.457-2.461zm0 0"/><g clip-path="url(#d)"><path fill="#e08709" d="M192.496 261.508h-9.832a2.468 2.468 0 00-2.46 2.46 2.47 2.47 0 002.46 2.462h9.832a2.467 2.467 0 002.457-2.461 2.465 2.465 0 00-2.457-2.461zm0 0"/></g></svg>
